public/assets/images/about/icons/18.svg

<svg width="60" height="60" viewBox="0 0 60 60" fill="none" xmlns="http://www.w3.org/2000/svg">
<g clip-path="url(#clip0_1492_24952)">
<path fill-rule="evenodd" clip-rule="evenodd" d="M22.3948 29.975C17.18 35.014 20.9417 44.2953 28.2893 44.1898C32.8831 44.1898 36.6214 40.4515 36.6214 35.8578C36.7151 28.5218 27.4339 24.7601 22.3948 29.975ZM28.2776 42.5726C19.4182 42.3031 19.4182 29.4359 28.2776 29.1664C30.1292 29.1664 31.805 29.9164 33.0237 31.1351C37.219 35.1781 34.1956 42.6546 28.2776 42.5726ZM58.4768 18.1859C53.8831 13.557 47.1096 19.2406 49.9807 24.3148L41.93 30.5257C40.3362 28.6742 38.3792 27.1859 36.2112 26.1195L41.2854 14.6117C44.051 15.4789 47.2737 14.8578 49.3128 12.2679C53.5667 7.26403 49.2893 -0.716443 42.7151 0.0921508C38.6253 0.537463 35.637 4.26403 36.094 8.35387C36.3401 10.932 37.8401 12.8656 39.8089 13.9672L34.7229 25.475C32.3206 24.5375 29.719 24.1039 27.1175 24.2445L26.2854 16.6976C32.6839 14.8226 30.6448 5.30699 23.8479 6.44371C17.5198 7.95543 18.844 16.6976 24.68 16.8851L25.512 24.3968C23.7776 24.6547 22.0667 25.1703 20.4378 25.9672L12.8323 12.0101C17.7893 8.56481 15.1057 -0.388318 7.91042 0.818713C-0.105203 2.76403 2.20339 14.3773 10.3596 13.0882C10.7346 13.0062 11.0745 12.889 11.4026 12.7601L19.0198 26.7523C17.8362 27.4789 16.6995 28.3695 15.6448 29.4359C15.4807 29.6 15.3401 29.764 15.1878 29.9281L9.87917 25.4398C11.9065 22.0297 9.50417 16.6156 4.28933 17.4945C-2.43723 19.1 -0.527077 28.9086 6.31667 27.8656C7.34792 27.6312 8.17995 27.2093 8.82448 26.6703L14.1331 31.1586C8.61355 38.2132 9.62136 47.7054 14.8596 53.8226C14.8948 53.8929 14.9417 53.9632 15.0003 54.0218C15.0471 54.0804 15.1057 54.1273 15.1526 54.1742C15.5159 54.5726 15.9026 54.9593 16.301 55.3343C16.3128 55.3461 16.3128 55.3461 16.3245 55.3578C18.2815 57.1625 20.6721 58.5453 23.426 59.2953C23.5432 59.3304 23.6721 59.3656 23.7893 59.4007C24.0354 59.4593 24.2815 59.5179 24.5393 59.5648C24.7737 59.6117 25.0081 59.6703 25.2425 59.7054C25.43 59.7406 25.6292 59.764 25.8284 59.7875C26.0979 59.8226 26.3675 59.8578 26.637 59.8812C26.9065 59.9046 27.1643 59.9164 27.4339 59.9281C27.6096 59.9398 27.7737 59.9515 27.9495 59.9515C28.0667 59.9515 28.1839 59.9632 28.301 59.9632C28.5354 59.9632 28.7698 59.9398 29.0042 59.9281C29.1331 59.9164 29.262 59.9164 29.3909 59.9047C31.676 59.764 33.8557 59.2015 35.8245 58.2875C36.012 58.2054 36.1878 58.1117 36.3753 58.0179C36.5862 57.9125 36.8089 57.807 37.0198 57.6781C38.4612 56.8929 39.7737 55.9086 40.9221 54.7367C40.9573 54.7015 40.9925 54.6547 41.0393 54.6195C41.2385 54.4086 41.4378 54.2093 41.6253 53.9984C41.6487 53.975 41.6604 53.9398 41.6839 53.9164C44.4729 50.764 46.1839 46.6273 46.1839 42.0804C46.1839 38.0843 44.9651 34.6039 42.9612 31.7914L50.9885 25.5921C55.887 30.0921 62.9651 23.389 58.4768 18.1859ZM42.9378 1.69762C50.6721 1.18199 51.8089 12.3265 44.1214 13.3695C42.9846 13.4398 42.0003 13.264 41.1682 12.9125H41.1565C36.2581 10.8265 36.3987 2.58824 42.9378 1.69762ZM24.2112 8.02574C28.969 7.22887 30.3401 14.1547 25.6175 15.2093C20.8479 15.9828 19.5003 9.11559 24.2112 8.02574ZM10.055 11.5062C4.00808 12.4906 2.29714 3.78356 8.2737 2.41246C14.2971 1.39293 16.0198 10.1586 10.055 11.5062ZM6.04714 26.2718C1.28933 27.0687 -0.0700462 20.1429 4.64089 19.0882C9.3987 18.2796 10.7581 25.2172 6.04714 26.2718ZM39.8557 53.4828C39.762 53.5765 39.6682 53.6703 39.5745 53.764C39.2932 54.0453 39.012 54.3265 38.7073 54.5843C38.4964 54.7601 38.2737 54.9242 38.051 55.0882C37.8518 55.2406 37.6643 55.3929 37.4534 55.5336C37.1604 55.7328 36.8557 55.9086 36.551 56.0843C36.3987 56.1781 36.2464 56.2718 36.094 56.3539C35.7659 56.5296 35.4378 56.682 35.0979 56.8226C34.9339 56.8929 34.7815 56.975 34.6292 57.0453C34.3245 57.1625 34.0198 57.2679 33.7034 57.3734C33.4925 57.4437 33.2932 57.5257 33.0823 57.5843C32.8596 57.6546 32.637 57.6898 32.4143 57.7484C32.1096 57.8187 31.805 57.9125 31.4885 57.9711C31.4417 57.9828 31.3948 57.9828 31.3596 57.9945C29.3089 58.3578 27.1878 58.3578 25.137 57.9828C25.1253 57.9828 25.1253 57.9828 25.1135 57.9828C24.7737 57.9242 24.4456 57.8304 24.1057 57.7484C23.9065 57.7015 23.7073 57.6664 23.5198 57.6078C23.2854 57.5375 23.0628 57.4554 22.8284 57.3734C22.5471 57.2797 22.2542 57.1859 21.9729 57.0687C21.7971 56.9984 21.6214 56.9046 21.4456 56.8226C21.1292 56.682 20.8128 56.5414 20.4964 56.3773C20.3206 56.2836 20.1682 56.1781 20.0042 56.0843C19.7112 55.9086 19.4182 55.7445 19.1253 55.5453C18.9143 55.4046 18.7151 55.2406 18.5159 55.0882C18.305 54.9242 18.0823 54.7718 17.8714 54.5961C17.5667 54.3382 17.2854 54.057 17.0042 53.7757C16.9104 53.682 16.805 53.5882 16.7112 53.4945C16.6526 53.4359 16.594 53.3656 16.5354 53.307C21.176 43.6859 35.3909 43.6859 40.0315 53.307C39.9729 53.3656 39.9143 53.4242 39.8557 53.4828ZM41.1682 51.9945C39.9964 49.8851 38.3089 48.0804 36.2932 46.7679C31.7464 43.6507 24.8206 43.6507 20.2854 46.7679C18.2581 48.0804 16.5823 49.8734 15.4104 51.9945C7.40652 41.7523 14.5198 25.8265 28.2893 25.8265C30.7034 25.8265 32.8948 26.3304 34.8518 27.1859C34.8635 27.1859 34.8635 27.1976 34.8753 27.1976C44.0862 31.2523 47.7659 43.5453 41.1682 51.9945ZM51.9378 24.3031C48.6682 20.6468 53.9534 15.7836 57.3284 19.3343C60.3987 22.9906 55.3362 27.6546 51.9378 24.3031Z" fill="#615EFC"/>
</g>
<defs>
<clipPath id="clip0_1492_24952">
<rect width="60" height="60" fill="white"/>
</clipPath>
</defs>
</svg>

<svg xmlns="http://www.w3.org/2000/svg" width="60" height="60" fill="none" viewBox="0 0 60 60"><g clip-path="url(#a)"><path fill="#615efc" fill-rule="evenodd" d="M22.395 29.975c-5.215 5.039-1.453 14.32 5.894 14.215 4.594 0 8.332-3.738 8.332-8.332.094-7.336-9.187-11.098-14.226-5.883m5.883 12.598c-8.86-.27-8.86-13.137 0-13.407 1.851 0 3.527.75 4.746 1.97 4.195 4.042 1.172 11.519-4.746 11.437m30.199-24.387c-4.594-4.629-11.367 1.055-8.496 6.129l-8.051 6.21a18.05 18.05 0 0 0-5.719-4.405l5.074-11.508c2.766.867 5.989.246 8.028-2.344C53.567 7.264 49.289-.716 42.715.092c-4.09.445-7.078 4.172-6.621 8.262.246 2.578 1.746 4.512 3.715 5.613l-5.086 11.508a18.3 18.3 0 0 0-7.605-1.23l-.833-7.547c6.399-1.875 4.36-11.391-2.437-10.254-6.328 1.511-5.004 10.254.832 10.441l.832 7.512a17.3 17.3 0 0 0-5.074 1.57L12.832 12.01C17.79 8.565 15.106-.388 7.91.82c-8.015 1.945-5.707 13.558 2.45 12.27a7 7 0 0 0 1.043-.329l7.617 13.992a18 18 0 0 0-3.375 2.684c-.164.164-.305.328-.457.492L9.879 25.44c2.027-3.41-.375-8.824-5.59-7.946C-2.437 19.1-.527 28.91 6.317 27.867c1.03-.235 1.863-.657 2.507-1.196l5.31 4.489c-5.52 7.054-4.513 16.546.726 22.664a.8.8 0 0 0 .14.199c.047.058.106.105.153.152a22 22 0 0 0 1.172 1.184 17 17 0 0 0 7.101 3.937c.117.035.246.07.363.106.246.058.492.117.75.164.235.047.47.105.703.14.188.036.387.059.586.083.27.035.54.07.809.093.27.024.527.035.797.047.176.012.34.024.515.024.118 0 .235.011.352.011.234 0 .469-.023.703-.035.13-.012.258-.012.387-.023a17.9 17.9 0 0 0 6.434-1.617c.187-.083.363-.176.55-.27.211-.105.434-.211.645-.34a16.5 16.5 0 0 0 3.902-2.941c.035-.035.07-.082.117-.117.2-.211.399-.41.586-.622.024-.023.035-.058.059-.082 2.789-3.152 4.5-7.289 4.5-11.836 0-3.996-1.219-7.476-3.223-10.289l8.028-6.199c4.898 4.5 11.976-2.203 7.488-7.406M42.937 1.698c7.735-.516 8.872 10.628 1.184 11.672-1.136.07-2.12-.106-2.953-.457h-.011c-4.899-2.087-4.758-10.325 1.78-11.215M24.212 8.026c4.758-.797 6.13 6.129 1.407 7.183-4.77.774-6.118-6.093-1.407-7.183m-14.156 3.48c-6.047.985-7.758-7.722-1.781-9.094 6.023-1.02 7.746 7.747 1.781 9.094M6.047 26.272c-4.758.797-6.117-6.13-1.406-7.184 4.758-.808 6.117 6.13 1.406 7.184m33.809 27.21-.282.282c-.28.281-.562.563-.867.82-.21.176-.433.34-.656.504-.2.153-.387.305-.598.446-.293.199-.597.375-.902.55a9 9 0 0 1-.457.27c-.328.176-.656.328-.996.469-.164.07-.316.152-.469.222-.304.117-.61.223-.926.328-.21.07-.41.153-.62.211-.223.07-.446.106-.669.164-.304.07-.609.165-.926.223-.046.012-.093.012-.128.024a17.6 17.6 0 0 1-6.223-.012h-.024c-.34-.059-.667-.153-1.007-.235-.2-.046-.399-.082-.586-.14-.235-.07-.457-.153-.692-.235-.28-.093-.574-.187-.855-.304-.176-.07-.352-.164-.527-.246a18 18 0 0 1-.95-.446c-.175-.093-.328-.199-.492-.293-.293-.175-.586-.34-.879-.539-.21-.14-.41-.304-.61-.457-.21-.164-.433-.316-.644-.492a15 15 0 0 1-.867-.82c-.094-.094-.199-.188-.293-.282-.058-.058-.117-.128-.176-.187 4.641-9.621 18.856-9.621 23.497 0zm1.312-1.487a14.9 14.9 0 0 0-4.875-5.227c-4.547-3.117-11.472-3.117-16.008 0a14.7 14.7 0 0 0-4.875 5.227c-8.003-10.243-.89-26.168 12.88-26.168 2.413 0 4.605.503 6.562 1.359.012 0 .012.012.023.012 9.211 4.054 12.89 16.347 6.293 24.797m10.77-27.692c-3.27-3.656 2.015-8.52 5.39-4.969 3.07 3.657-1.992 8.32-5.39 4.97" clip-rule="evenodd"/></g><defs><clipPath id="a"><path fill="#fff" d="M0 0h60v60H0z"/></clipPath></defs></svg>
